public/img/StipendiumSquare.svg

<svg fill="none" height="37" viewBox="0 0 171 37" width="171" xmlns="http://www.w3.org/2000/svg"><path d="m1.25333 9.07645c0 7.38725-.645027 15.13855.12343 22.49445.0451.4316.11096 3.1984.80233 3.3203 4.83129.8515 10.65561.0631 15.49111-.0898 10.8714-.3436 21.6302-.9572 32.5252-.9572 9.3556 0 18.7118.5385 28.0815.5385 10.5064 0 20.7502 1.6838 31.2911 1.6153 8.625-.0562 17.343-1.6179 25.983-2.0341 8.575-.413 17.076-.6581 25.674-.6581 3.424 0 9.054 1.8258 8.764-2.6323-.359-5.5289-1.509-10.8388-2.314-16.3025-.337-2.2887.332-5.46992-.463-7.62774-.244-.66147-4.66-.79876-5.246-.9273-4.613-1.01248-9.197-1.25942-13.887-1.70503-7.861-.74712-14.988-3.11093-23.02-3.11093-11.046 0-21.628.19283-32.5871 1.73494-23.74 3.3405-48.2762 2.03407-72.2095 2.03407-5.4208 0-10.89778.53843-16.23178.53843" stroke="#3dd7ac" stroke-linecap="round" stroke-linejoin="round" stroke-width="2"/></svg>

<svg width="171" height="37" viewBox="0 0 171 37" fill="none" xmlns="http://www.w3.org/2000/svg">
<path d="M1.25333 9.07645C1.25333 16.4637 0.608303 24.215 1.37676 31.5709C1.42186 32.0025 1.48772 34.7693 2.17909 34.8912C7.01038 35.7427 12.8347 34.9543 17.6702 34.8014C28.5416 34.4578 39.3004 33.8442 50.1954 33.8442C59.551 33.8442 68.9072 34.3827 78.2769 34.3827C88.7833 34.3827 99.0271 36.0665 109.568 35.998C118.193 35.9418 126.911 34.3801 135.551 33.9639C144.126 33.5509 152.627 33.3058 161.225 33.3058C164.649 33.3058 170.279 35.1316 169.989 30.6735C169.63 25.1446 168.48 19.8347 167.675 14.371C167.338 12.0823 168.007 8.90108 167.212 6.74326C166.968 6.08179 162.552 5.9445 161.966 5.81596C157.353 4.80348 152.769 4.55654 148.079 4.11093C140.218 3.36381 133.091 1 125.059 1C114.013 1 103.431 1.19283 92.4719 2.73494C68.7319 6.07544 44.1957 4.76901 20.2624 4.76901C14.8416 4.76901 9.36462 5.30744 4.03062 5.30744" stroke="#3DD7AC" stroke-width="2" stroke-linecap="round" stroke-linejoin="round"/>
</svg>
